rook/static/img/icons/database-red.svg

<?xml version="1.0" encoding="utf-8"?>
<!-- Generator: Adobe Illustrator 16.0.0, SVG Export Plug-In . SVG Version: 6.00 Build 0)  -->
<!DOCTYPE svg PUBLIC "-//W3C//DTD SVG 1.1//EN" "http://www.w3.org/Graphics/SVG/1.1/DTD/svg11.dtd">
<svg viewBox="0 0 100 100" xmlns="http://www.w3.org/2000/svg">
 <g>
  <title>Database</title>
  <g>
   <path stroke="white" fill="white" stroke-miterlimit="10" stroke-linejoin="round" stroke-linecap="square" clip-rule="evenodd" fill-rule="evenodd" d="m0,27.603718l0,-11.444761c6.722464,7.539423 27.750597,11.716223 49.10001,11.716223s42.392696,-4.1768 49.10001,-11.716223l-0.087906,11.339262c-1.607368,8.097252 -22.927475,14.520805 -49.012104,14.520805s-47.404753,-6.423553 -49.10001,-14.415306zm0,33.248638c6.693159,8.112373 27.633406,12.756615 49.10001,12.756615s42.406849,-4.644241 49.10001,-12.756615l0,9.952034c0,9.348755 -21.977821,16.933311 -49.10001,16.933311s-49.10001,-7.584557 -49.10001,-16.933311l0,-9.952034zm98.20002,-22.346699l-0.058617,10.97731c-1.286102,8.564705 -22.752693,15.395336 -49.041393,15.395336c-26.288719,0 -47.755323,-6.830631 -49.10001,-15.319859l0,-11.052788c6.707311,7.825897 27.692001,12.228912 49.10001,12.228912s42.392696,-4.403015 49.10001,-12.228912z" />
   <g>
    <path stroke="white" fill="red" stroke-miterlimit="10" stroke-linejoin="round" stroke-linecap="square" clip-rule="evenodd" fill-rule="evenodd" d="m0,38.028549l0,-11.444748c6.722034,7.539364 27.750257,11.716156 49.100014,11.716156s42.392563,-4.176792 49.099976,-11.716156l-0.087677,11.339184c-1.607407,8.097267 -22.927956,14.520821 -49.012299,14.520821s-47.404933,-6.423504 -49.100014,-14.415257zm0,33.248619c6.692779,8.112358 27.633371,12.756584 49.100014,12.756584s42.407188,-4.644226 49.099976,-12.756584l0,9.951973c0,9.348778 -21.978073,16.933372 -49.099976,16.933372s-49.100014,-7.584595 -49.100014,-16.933372l0,-9.951973zm98.199989,-22.346687l-0.058464,10.977314c-1.285919,8.564701 -22.752563,15.395367 -49.041553,15.395367c-26.28895,0 -47.755592,-6.830666 -49.099972,-15.319946l0,-11.052734c6.707407,7.825867 27.691792,12.228874 49.099972,12.228874s42.392605,-4.403008 49.100018,-12.228874zm-98.199989,-34.138253c0,-8.172692 21.978109,-14.792228 49.100014,-14.792228s49.099976,6.619536 49.099976,14.792228c0,8.157596 -21.978073,14.777131 -49.099976,14.777131s-49.100014,-6.619535 -49.100014,-14.777131z" />
   </g>
  </g>
 </g>
</svg>

<?xml version="1.0" encoding="utf-8"?>
<!-- Generator: Adobe Illustrator 16.0.0, SVG Export Plug-In . SVG Version: 6.00 Build 0)  -->
<!DOCTYPE svg PUBLIC "-//W3C//DTD SVG 1.1//EN" "http://www.w3.org/Graphics/SVG/1.1/DTD/svg11.dtd">
<svg viewBox="0 0 100 100" xmlns="http://www.w3.org/2000/svg">
 <g>
  <title>Database</title>
  <g>
   <path stroke="white" fill="white" stroke-miterlimit="10" stroke-linejoin="round" stroke-linecap="square" clip-rule="evenodd" fill-rule="evenodd" d="M 0,27.603718 0,16.158957 c 6.722464,7.539423 27.750597,11.716223 49.10001,11.716223 21.349413,0 42.392696,-4.1768 49.10001,-11.716223 L 98.11211,27.498219 C 96.504746,35.595471 75.184639,42.019024 49.10001,42.019024 23.015381,42.019024 1.695257,35.595471 0,27.603718 z m 0,33.248638 c 6.693159,8.112373 27.633406,12.756615 49.10001,12.756615 21.466604,0 42.406849,-4.644241 49.10001,-12.756615 l 0,9.952034 c 0,9.348755 -21.977821,16.933311 -49.10001,16.933311 C 21.977821,87.737701 0,80.153144 0,70.80439 L 0,60.852356 z M 98.20002,38.505657 98.1414,49.482967 C 96.855301,58.047672 75.38871,64.878303 49.10001,64.878303 22.811291,64.878303 1.344687,58.047672 0,49.558444 L 0,38.505656 c 6.707311,7.825897 27.692001,12.228912 49.10001,12.228912 21.408009,0 42.392696,-4.403015 49.10001,-12.228912 z" />
   <g>
    <path stroke="white" fill="red" stroke-miterlimit="10" stroke-linejoin="round" stroke-linecap="square" clip-rule="evenodd" fill-rule="evenodd" d="M 0,38.028549 0,26.583801 c 6.722034,7.539364 27.750257,11.716156 49.100014,11.716156 21.349757,0 42.392563,-4.176792 49.099976,-11.716156 L 98.11231,37.922985 C 96.504906,46.020252 75.184357,52.443806 49.100014,52.443806 23.015671,52.443806 1.695081,46.020302 0,38.028549 z m 0,33.248619 c 6.692779,8.112358 27.633371,12.756584 49.100014,12.756584 21.466643,0 42.407188,-4.644226 49.099976,-12.756584 l 0,9.951973 c 0,9.348778 -21.978073,16.933372 -49.099976,16.933372 C 21.978111,98.162513 0,90.577918 0,81.229141 L 0,71.277168 z M 98.199989,48.930481 98.141525,59.907795 C 96.855606,68.472496 75.388962,75.303162 49.099972,75.303162 22.811022,75.303162 1.34438,68.472496 0,59.983216 L 0,48.930482 c 6.707407,7.825867 27.691792,12.228874 49.099972,12.228874 21.40818,0 42.392605,-4.403008 49.100018,-12.228874 z M 0,14.792228 C 0,6.619536 21.978109,0 49.100014,0 76.221919,0 98.19999,6.619536 98.19999,14.792228 c 0,8.157596 -21.978073,14.777131 -49.099976,14.777131 C 21.978111,29.569359 0,22.949824 0,14.792228 z" />
   </g>
  </g>
 </g>
</svg>
